X:24
T:A feg for a kiss
T: A Fig for a Kiss (O'Neill Collections)
R:slip jig
C:traditional
B:Bremner's Collections, 1757
N:melodic code 155 244
Z:Paul Stewart Cranford (P.S.C.), <http://www.cranfordpub.com>
L:1/8
M:9/8
Q:333
K:Eminor
z|E2 B BGE BGE|FAD A Fd AFD|EFG ABc BAG|BeB AGF E2:|
||zeBe geg bge|dAd fdf afd|eBe geg bge|(gfe) Be^d e3|
eBe geg bge|dAd fdf afd|(e/f/g)f edc BAG|BeB AGF E2|]
